X:0752
T:Lord Alexr. Gordon's Reel.
M:C|
L:1/8
Q:1/4=120
N:opening printed with a spurious barline, D(d|d)f/g/ ad f2|
N:bar 8 printed |bc'd'b d'/b/a/g/ fd d2:|
I: :: ||
Z:Jack Campin * www.campin.me.uk * 2009
K:D
D(d d)f/g/ ad  f2|aa b/a/g/f/ g(ee)f|  D(d   d)f/g/  adfa     |(3bc'd'     (3abg       fd d2 |
D(d d)f/g/ ad Tf2|aa b/a/g/f/ g(ee)f|  D(d   d)f/g/  adfa     |  b/c'/d'/b/  d'/b/a/g/ fd d2||
F(A A)B/c/ dA  d2|B(ee)f      gfed  |(3fga (3bc'd'   b>agf    |(3efg       (3abg       fd d2 |
F(A A)B/c/ dA  d2|B(ee)f      gfed  |(3fga (3bc'd' (3bag (3fed|(3efg       (3abg       fd d2|]
<end>
<start>
